svg/fluentui-system-icons/ic_fluent_my_location_20_regular.svg

<svg width="20" height="20" viewBox="0 0 20 20" fill="none" xmlns="http://www.w3.org/2000/svg">
<path d="M10 13C11.6569 13 13 11.6569 13 10C13 8.34315 11.6569 7 10 7C8.34315 7 7 8.34315 7 10C7 11.6569 8.34315 13 10 13ZM10.5 2.5C10.5 2.22386 10.2761 2 10 2C9.72386 2 9.5 2.22386 9.5 2.5V4.02054C6.5851 4.26101 4.26101 6.5851 4.02054 9.5H2.5C2.22386 9.5 2 9.72386 2 10C2 10.2761 2.22386 10.5 2.5 10.5H4.02054C4.26101 13.4149 6.5851 15.739 9.5 15.9795V17.5C9.5 17.7761 9.72386 18 10 18C10.2761 18 10.5 17.7761 10.5 17.5V15.9795C13.4149 15.739 15.739 13.4149 15.9795 10.5H17.5C17.7761 10.5 18 10.2761 18 10C18 9.72386 17.7761 9.5 17.5 9.5H15.9795C15.739 6.5851 13.4149 4.26101 10.5 4.02054V2.5ZM10 15C7.23858 15 5 12.7614 5 10C5 7.23858 7.23858 5 10 5C12.7614 5 15 7.23858 15 10C15 12.7614 12.7614 15 10 15Z" fill="#212121"/>
</svg>

<svg xmlns="http://www.w3.org/2000/svg" width="20" height="20"><path d="M10 13a3 3 0 1 0 0-6 3 3 0 0 0 0 6Zm.5-10.5a.5.5 0 0 0-1 0v1.52A6.001 6.001 0 0 0 4.02 9.5H2.5a.5.5 0 0 0 0 1h1.52a6.001 6.001 0 0 0 5.48 5.48v1.52a.5.5 0 0 0 1 0v-1.52a6.002 6.002 0 0 0 5.48-5.48h1.52a.5.5 0 0 0 0-1h-1.52a6.001 6.001 0 0 0-5.48-5.48V2.5ZM10 15a5 5 0 1 1 0-10 5 5 0 0 1 0 10Z"/></svg>
